svgs/light/circle-right.svg

<svg xmlns="http://www.w3.org/2000/svg" viewBox="0 0 512 512"><!-- Font Awesome Pro 6.0.0-alpha2 by @fontawesome - https://fontawesome.com License - https://fontawesome.com/license (Commercial License) --><path d="M388.281 284.281C403.406 269.156 403.609 243.031 388.078 227.531L292.281 135.031C280.797 123.563 263.688 120.156 248.688 126.344C233.688 132.562 224 147.062 224 163.312V192H152C129.938 192 112 209.938 112 232V280C112 302.062 129.938 320 152 320H224V348.688C224 364.938 233.688 379.438 248.688 385.656C263.641 391.844 280.688 388.469 292.172 377.094L388.281 284.281ZM256 348.688V288H152C147.594 288 144 284.406 144 280V232C144 227.594 147.594 224 152 224H256V163.312C256 156.898 264.047 152.057 269.859 157.844L365.656 250.344C369.861 254.506 367.453 259.877 365.859 261.469L269.859 354.156L269.656 354.344C264.805 359.195 256 356.121 256 348.688ZM496 256C496 123.451 388.549 16 256 16S16 123.451 16 256S123.451 496 256 496S496 388.549 496 256ZM48 256C48 141.309 141.309 48 256 48S464 141.309 464 256S370.691 464 256 464S48 370.691 48 256Z"/></svg>

<svg xmlns="http://www.w3.org/2000/svg" viewBox="0 0 512 512"><!--! Font Awesome Pro 6.0.0-alpha3 by @fontawesome - https://fontawesome.com License - https://fontawesome.com/license (Commercial License) --><path d="M292.3 135c-11.48-11.47-28.59-14.88-43.59-8.688C233.7 132.6 224 147.1 224 163.3V192H152C129.9 192 112 209.9 112 232v48C112 302.1 129.9 320 152 320H224v28.69c0 16.25 9.688 30.75 24.69 36.97c14.95 6.188 32 2.812 43.48-8.562l96.11-92.81c15.12-15.12 15.33-41.25-.2031-56.75L292.3 135zM365.9 261.5l-96 92.69C265 359 256 356.1 256 348.7V288H152C147.6 288 144 284.4 144 280v-48C144 227.6 147.6 224 152 224H256V163.3c0-6.414 8.047-11.26 13.86-5.471l95.8 92.5C369.9 254.5 367.5 259.9 365.9 261.5zM256 0C114.6 0 0 114.6 0 256s114.6 256 256 256s256-114.6 256-256S397.4 0 256 0zM256 480c-123.5 0-224-100.5-224-224s100.5-224 224-224s224 100.5 224 224S379.5 480 256 480z"/></svg>
